core/assets/icons/internet.svg

<svg width="24" height="24" viewBox="0 0 24 24" xmlns="http://www.w3.org/2000/svg"><g id="internet"><path id="Vector" d="M12 22C6.477 22 2 17.523 2 12C2 6.477 6.477 2 12 2C17.523 2 22 6.477 22 12C22 17.523 17.523 22 12 22ZM9.71 19.667C8.72341 17.5743 8.15187 15.3102 8.027 13H4.062C4.25659 14.5389 4.89392 15.9882 5.89657 17.1717C6.89922 18.3552 8.22401 19.2221 9.71 19.667ZM10.03 13C10.181 15.439 10.878 17.73 12 19.752C13.1523 17.6766 13.8254 15.3695 13.97 13H10.03ZM19.938 13H15.973C15.8481 15.3102 15.2766 17.5743 14.29 19.667C15.776 19.2221 17.1008 18.3552 18.1034 17.1717C19.1061 15.9882 19.7434 14.5389 19.938 13ZM4.062 11H8.027C8.15187 8.68979 8.72341 6.42569 9.71 4.333C8.22401 4.77788 6.89922 5.64475 5.89657 6.8283C4.89392 8.01184 4.25659 9.4611 4.062 11ZM10.031 11H13.969C13.8248 8.6306 13.152 6.32353 12 4.248C10.8477 6.32345 10.1746 8.63052 10.03 11H10.031ZM14.29 4.333C15.2766 6.42569 15.8481 8.68979 15.973 11H19.938C19.7434 9.4611 19.1061 8.01184 18.1034 6.8283C17.1008 5.64475 15.776 4.77788 14.29 4.333Z"/></g></svg>

<svg xmlns="http://www.w3.org/2000/svg" width="24" height="24" fill="none"><path fill="#191C22" d="M12 22C6.477 22 2 17.523 2 12S6.477 2 12 2s10 4.477 10 10-4.477 10-10 10Zm-2.29-2.333A17.9 17.9 0 0 1 8.027 13H4.062a8.008 8.008 0 0 0 5.648 6.667ZM10.03 13c.151 2.439.848 4.73 1.97 6.752A15.906 15.906 0 0 0 13.97 13h-3.94Zm9.908 0h-3.965a17.9 17.9 0 0 1-1.683 6.667A8.008 8.008 0 0 0 19.938 13ZM4.062 11h3.965A17.9 17.9 0 0 1 9.71 4.333 8.008 8.008 0 0 0 4.062 11Zm5.969 0h3.938A15.904 15.904 0 0 0 12 4.248 15.906 15.906 0 0 0 10.03 11h.001Zm4.259-6.667A17.9 17.9 0 0 1 15.973 11h3.965a8.008 8.008 0 0 0-5.648-6.667Z"/></svg>
